icons/tools-24.svg

<svg width="24" height="24" viewBox="0 0 24 24" xmlns="http://www.w3.org/2000/svg">
  <path fill-rule="evenodd" clip-rule="evenodd" d="M7.8746 2.29246C7.86953 2.29413 7.85877 2.29843 7.8428 2.30963C5.97109 3.62213 4.75 5.7936 4.75 8.25018C4.75 10.9447 6.21955 13.2969 8.40449 14.5474C8.97456 14.8736 9.38599 15.5017 9.34529 16.229L9.34517 16.2311L9.02755 22.2892C9.00587 22.7029 8.65296 23.0206 8.23932 22.9989C7.82567 22.9773 7.50793 22.6243 7.52961 22.2107L7.84742 16.149L7.84761 16.1455C7.85278 16.0551 7.80044 15.93 7.6594 15.8492C5.02672 14.3425 3.25 11.5043 3.25 8.25018C3.25 5.28396 4.72666 2.66272 6.98159 1.08149C7.53711 0.691949 8.19339 0.717194 8.69061 1.01698C9.17501 1.30903 9.5 1.85153 9.5 2.47762V7.19123C9.5 7.27804 9.54504 7.35864 9.61898 7.40414L11.869 8.78875C11.9493 8.8382 12.0507 8.8382 12.131 8.78875L14.381 7.40414C14.455 7.35864 14.5 7.27804 14.5 7.19123V2.47762C14.5 1.85153 14.825 1.30903 15.3094 1.01698C15.8066 0.717194 16.4629 0.691949 17.0184 1.08149C19.2733 2.66272 20.75 5.28396 20.75 8.25018C20.75 11.5043 18.9733 14.3425 16.3406 15.8492C16.1996 15.93 16.1472 16.0551 16.1524 16.1455L16.1526 16.149L16.4704 22.2107C16.4921 22.6243 16.1743 22.9773 15.7607 22.9989C15.347 23.0206 14.9941 22.7029 14.9724 22.2892L14.6548 16.2311L14.6547 16.2291C14.614 15.5018 15.0254 14.8737 15.5955 14.5474C17.7804 13.2969 19.25 10.9447 19.25 8.25018C19.25 5.7936 18.0289 3.62213 16.1572 2.30963C16.1412 2.29843 16.1305 2.29413 16.1254 2.29246C16.1203 2.29078 16.1154 2.2905 16.1154 2.2905C16.1123 2.29045 16.1013 2.29104 16.0839 2.30156C16.0476 2.32346 16 2.37981 16 2.47762V7.19123C16 7.79893 15.6847 8.36313 15.1672 8.68163L12.9172 10.0662C12.3547 10.4124 11.6453 10.4124 11.0828 10.0662L8.83283 8.68163C8.31527 8.36313 8 7.79893 8 7.19123V2.47762C8 2.37981 7.95244 2.32346 7.91611 2.30156C7.89867 2.29104 7.88774 2.29045 7.88458 2.2905C7.88458 2.2905 7.8797 2.29078 7.8746 2.29246Z"/>
</svg>

<svg xmlns="http://www.w3.org/2000/svg" width="24" height="24" viewBox="0 0 24 24"><path fill-rule="evenodd" d="M7.875 2.292a.125.125 0 00-.032.018A7.24 7.24 0 004.75 8.25a7.247 7.247 0 003.654 6.297c.57.327.982.955.941 1.682v.002l-.317 6.058a.75.75 0 11-1.498-.078l.317-6.062v-.004c.006-.09-.047-.215-.188-.296A8.747 8.747 0 013.25 8.25a8.74 8.74 0 013.732-7.169 1.547 1.547 0 011.709-.064c.484.292.809.835.809 1.46v4.714a.25.25 0 00.119.213l2.25 1.385c.08.05.182.05.262 0l2.25-1.385a.25.25 0 00.119-.213V2.478c0-.626.325-1.169.81-1.461a1.547 1.547 0 011.708.064 8.74 8.74 0 013.732 7.17 8.747 8.747 0 01-4.41 7.598c-.14.081-.193.206-.188.296v.004l.318 6.062a.75.75 0 11-1.498.078l-.317-6.058v-.002c-.041-.727.37-1.355.94-1.682A7.247 7.247 0 0019.25 8.25a7.24 7.24 0 00-3.093-5.94.125.125 0 00-.032-.018l-.01-.001c-.003 0-.014 0-.031.01-.036.022-.084.079-.084.177V7.19a1.75 1.75 0 01-.833 1.49l-2.25 1.385a1.75 1.75 0 01-1.834 0l-2.25-1.384A1.75 1.75 0 018 7.192V2.477c0-.098-.048-.155-.084-.176a.062.062 0 00-.031-.011l-.01.001z"/></svg>
